%
(Face v4)
(T1  D=0.7 CR=0 - ZMIN=-2.5 - flat end mill)
G90 G94
G17
G21

(2D Contour10)
M9
S5000 M3
G54
M8
G0 X20.268 Y15.014
Z8
Z2
G1 Z1.7 F333.3
Z-0.63
Y15.019 Z-0.657
Y15.034 Z-0.679
Y15.057 Z-0.695
Y15.084 Z-0.7
Y15.154 F1000
X20.263 Y15.18
X20.248 Y15.203
X20.225 Y15.218
X20.198 Y15.224
X6.583 F300
X6.534 Y15.216
X6.49 Y15.194
X6.455 Y15.159
X6.433 Y15.115
X6.425 Y15.066
Y-12.165
X6.433 Y-12.214
X6.455 Y-12.258
X6.49 Y-12.293
X6.534 Y-12.315
X6.583 Y-12.323
X46.718
X46.766 Y-12.315
X46.811 Y-12.293
X46.845 Y-12.258
X46.868 Y-12.214
X46.876 Y-12.165
Y15.066
X46.868 Y15.115
X46.846 Y15.159
X46.811 Y15.194
X46.766 Y15.216
X46.718 Y15.224
X20.198
X20.172 Y15.218 F1000
X20.149 Y15.203
X20.134 Y15.18
X20.128 Y15.154
Y15.084
Y15.057 Z-0.695
Y15.034 Z-0.679
Y15.019 Z-0.657
Y15.014 Z-0.63
G0 Z3
X20.268
Z2
G1 Z1 F333.3
Z-1.33
Y15.019 Z-1.357
Y15.034 Z-1.379
Y15.057 Z-1.395
Y15.084 Z-1.4
Y15.154 F1000
X20.263 Y15.18
X20.248 Y15.203
X20.225 Y15.218
X20.198 Y15.224
X6.583 F300
X6.534 Y15.216
X6.49 Y15.194
X6.455 Y15.159
X6.433 Y15.115
X6.425 Y15.066
Y-12.165
X6.433 Y-12.214
X6.455 Y-12.258
X6.49 Y-12.293
X6.534 Y-12.315
X6.583 Y-12.323
X46.718
X46.766 Y-12.315
X46.811 Y-12.293
X46.845 Y-12.258
X46.868 Y-12.214
X46.876 Y-12.165
Y15.066
X46.868 Y15.115
X46.846 Y15.159
X46.811 Y15.194
X46.766 Y15.216
X46.718 Y15.224
X20.198
X20.172 Y15.218 F1000
X20.149 Y15.203
X20.134 Y15.18
X20.128 Y15.154
Y15.084
Y15.057 Z-1.395
Y15.034 Z-1.379
Y15.019 Z-1.357
Y15.014 Z-1.33
G0 Z3
X20.268
Z2
G1 Z0.3 F333.3
Z-2.03
Y15.019 Z-2.057
Y15.034 Z-2.079
Y15.057 Z-2.095
Y15.084 Z-2.1
Y15.154 F1000
X20.263 Y15.18
X20.248 Y15.203
X20.225 Y15.218
X20.198 Y15.224
X6.583 F300
X6.534 Y15.216
X6.49 Y15.194
X6.455 Y15.159
X6.433 Y15.115
X6.425 Y15.066
Y-12.165
X6.433 Y-12.214
X6.455 Y-12.258
X6.49 Y-12.293
X6.534 Y-12.315
X6.583 Y-12.323
X46.718
X46.766 Y-12.315
X46.811 Y-12.293
X46.845 Y-12.258
X46.868 Y-12.214
X46.876 Y-12.165
Y15.066
X46.868 Y15.115
X46.846 Y15.159
X46.811 Y15.194
X46.766 Y15.216
X46.718 Y15.224
X20.198
X20.172 Y15.218 F1000
X20.149 Y15.203
X20.134 Y15.18
X20.128 Y15.154
Y15.084
Y15.057 Z-2.095
Y15.034 Z-2.079
Y15.019 Z-2.057
Y15.014 Z-2.03
G0 Z3
X20.268
Z2
G1 Z-0.4 F333.3
Z-2.43
Y15.019 Z-2.457
Y15.034 Z-2.479
Y15.057 Z-2.495
Y15.084 Z-2.5
Y15.154 F1000
X20.263 Y15.18
X20.248 Y15.203
X20.225 Y15.218
X20.198 Y15.224
X6.583 F300
X6.534 Y15.216
X6.49 Y15.194
X6.455 Y15.159
X6.433 Y15.115
X6.425 Y15.066
Y-12.165
X6.433 Y-12.214
X6.455 Y-12.258
X6.49 Y-12.293
X6.534 Y-12.315
X6.583 Y-12.323
X46.718
X46.766 Y-12.315
X46.811 Y-12.293
X46.845 Y-12.258
X46.868 Y-12.214
X46.876 Y-12.165
Y15.066
X46.868 Y15.115
X46.846 Y15.159
X46.811 Y15.194
X46.766 Y15.216
X46.718 Y15.224
X20.198
X20.172 Y15.218 F1000
X20.149 Y15.203
X20.134 Y15.18
X20.128 Y15.154
Y15.084
Y15.057 Z-2.495
Y15.034 Z-2.479
Y15.019 Z-2.457
Y15.014 Z-2.43
G0 Z3
X-6.534 Y1.38
Z2
G1 Z1.7 F333.3
Z-0.63
X-6.529 Z-0.657
X-6.514 Z-0.679
X-6.491 Z-0.695
X-6.464 Z-0.7
X-6.394 F1000
X-6.368 Y1.386
X-6.345 Y1.401
X-6.33 Y1.424
X-6.324 Y1.45
Y15.066 F300
X-6.332 Y15.115
X-6.355 Y15.159
X-6.389 Y15.194
X-6.434 Y15.216
X-6.482 Y15.224
X-46.617
X-46.666 Y15.216
X-46.71 Y15.194
X-46.745 Y15.159
X-46.767 Y15.115
X-46.775 Y15.066
Y-12.165
X-46.767 Y-12.214
X-46.745 Y-12.258
X-46.71 Y-12.293
X-46.666 Y-12.315
X-46.617 Y-12.323
X-6.482
X-6.434 Y-12.315
X-6.389 Y-12.293
X-6.355 Y-12.258
X-6.332 Y-12.214
X-6.324 Y-12.165
Y1.45
X-6.33 Y1.477 F1000
X-6.345 Y1.5
X-6.368 Y1.515
X-6.394 Y1.52
X-6.464
X-6.491 Z-0.695
X-6.514 Z-0.679
X-6.529 Z-0.657
X-6.534 Z-0.63
G0 Z3
Y1.38
Z2
G1 Z1 F333.3
Z-1.33
X-6.529 Z-1.357
X-6.514 Z-1.379
X-6.491 Z-1.395
X-6.464 Z-1.4
X-6.394 F1000
X-6.368 Y1.386
X-6.345 Y1.401
X-6.33 Y1.424
X-6.324 Y1.45
Y15.066 F300
X-6.332 Y15.115
X-6.355 Y15.159
X-6.389 Y15.194
X-6.434 Y15.216
X-6.482 Y15.224
X-46.617
X-46.666 Y15.216
X-46.71 Y15.194
X-46.745 Y15.159
X-46.767 Y15.115
X-46.775 Y15.066
Y-12.165
X-46.767 Y-12.214
X-46.745 Y-12.258
X-46.71 Y-12.293
X-46.666 Y-12.315
X-46.617 Y-12.323
X-6.482
X-6.434 Y-12.315
X-6.389 Y-12.293
X-6.355 Y-12.258
X-6.332 Y-12.214
X-6.324 Y-12.165
Y1.45
X-6.33 Y1.477 F1000
X-6.345 Y1.5
X-6.368 Y1.515
X-6.394 Y1.52
X-6.464
X-6.491 Z-1.395
X-6.514 Z-1.379
X-6.529 Z-1.357
X-6.534 Z-1.33
G0 Z3
Y1.38
Z2
G1 Z0.3 F333.3
Z-2.03
X-6.529 Z-2.057
X-6.514 Z-2.079
X-6.491 Z-2.095
X-6.464 Z-2.1
X-6.394 F1000
X-6.368 Y1.386
X-6.345 Y1.401
X-6.33 Y1.424
X-6.324 Y1.45
Y15.066 F300
X-6.332 Y15.115
X-6.355 Y15.159
X-6.389 Y15.194
X-6.434 Y15.216
X-6.482 Y15.224
X-46.617
X-46.666 Y15.216
X-46.71 Y15.194
X-46.745 Y15.159
X-46.767 Y15.115
X-46.775 Y15.066
Y-12.165
X-46.767 Y-12.214
X-46.745 Y-12.258
X-46.71 Y-12.293
X-46.666 Y-12.315
X-46.617 Y-12.323
X-6.482
X-6.434 Y-12.315
X-6.389 Y-12.293
X-6.355 Y-12.258
X-6.332 Y-12.214
X-6.324 Y-12.165
Y1.45
X-6.33 Y1.477 F1000
X-6.345 Y1.5
X-6.368 Y1.515
X-6.394 Y1.52
X-6.464
X-6.491 Z-2.095
X-6.514 Z-2.079
X-6.529 Z-2.057
X-6.534 Z-2.03
G0 Z3
Y1.38
Z2
G1 Z-0.4 F333.3
Z-2.43
X-6.529 Z-2.457
X-6.514 Z-2.479
X-6.491 Z-2.495
X-6.464 Z-2.5
X-6.394 F1000
X-6.368 Y1.386
X-6.345 Y1.401
X-6.33 Y1.424
X-6.324 Y1.45
Y15.066 F300
X-6.332 Y15.115
X-6.355 Y15.159
X-6.389 Y15.194
X-6.434 Y15.216
X-6.482 Y15.224
X-46.617
X-46.666 Y15.216
X-46.71 Y15.194
X-46.745 Y15.159
X-46.767 Y15.115
X-46.775 Y15.066
Y-12.165
X-46.767 Y-12.214
X-46.745 Y-12.258
X-46.71 Y-12.293
X-46.666 Y-12.315
X-46.617 Y-12.323
X-6.482
X-6.434 Y-12.315
X-6.389 Y-12.293
X-6.355 Y-12.258
X-6.332 Y-12.214
X-6.324 Y-12.165
Y1.45
X-6.33 Y1.477 F1000
X-6.345 Y1.5
X-6.368 Y1.515
X-6.394 Y1.52
X-6.464
X-6.491 Z-2.495
X-6.514 Z-2.479
X-6.529 Z-2.457
X-6.534 Z-2.43
G0 Z8

(2D Contour7)
X2.19 Y-1.57
Z8
Z2
G1 Z1.7 F333.3
Z-0.63
X2.195 Z-0.657
X2.211 Z-0.679
X2.233 Z-0.695
X2.26 Z-0.7
X2.33 F1000
X2.357 Y-1.565
X2.379 Y-1.549
X2.395 Y-1.527
X2.4 Y-1.5
G3 X-2.4 I-2.4 F300
X2.4 I2.4
G1 X2.395 Y-1.473 F1000
X2.379 Y-1.451
X2.357 Y-1.435
X2.33 Y-1.43
X2.26
X2.233 Z-0.695
X2.211 Z-0.679
X2.195 Z-0.657
X2.19 Z-0.63
G0 Z3
Y-1.57
Z2
G1 Z1 F333.3
Z-1.33
X2.195 Z-1.357
X2.211 Z-1.379
X2.233 Z-1.395
X2.26 Z-1.4
X2.33 F1000
X2.357 Y-1.565
X2.379 Y-1.549
X2.395 Y-1.527
X2.4 Y-1.5
G3 X-2.4 I-2.4 F300
X2.4 I2.4
G1 X2.395 Y-1.473 F1000
X2.379 Y-1.451
X2.357 Y-1.435
X2.33 Y-1.43
X2.26
X2.233 Z-1.395
X2.211 Z-1.379
X2.195 Z-1.357
X2.19 Z-1.33
G0 Z3
Y-1.57
Z2
G1 Z0.3 F333.3
Z-2.03
X2.195 Z-2.057
X2.211 Z-2.079
X2.233 Z-2.095
X2.26 Z-2.1
X2.33 F1000
X2.357 Y-1.565
X2.379 Y-1.549
X2.395 Y-1.527
X2.4 Y-1.5
G3 X-2.4 I-2.4 F300
X2.4 I2.4
G1 X2.395 Y-1.473 F1000
X2.379 Y-1.451
X2.357 Y-1.435
X2.33 Y-1.43
X2.26
X2.233 Z-2.095
X2.211 Z-2.079
X2.195 Z-2.057
X2.19 Z-2.03
G0 Z3
Y-1.57
Z2
G1 Z-0.4 F333.3
Z-2.43
X2.195 Z-2.457
X2.211 Z-2.479
X2.233 Z-2.495
X2.26 Z-2.5
X2.33 F1000
X2.357 Y-1.565
X2.379 Y-1.549
X2.395 Y-1.527
X2.4 Y-1.5
G3 X-2.4 I-2.4 F300
X2.4 I2.4
G1 X2.395 Y-1.473 F1000
X2.379 Y-1.451
X2.357 Y-1.435
X2.33 Y-1.43
X2.26
X2.233 Z-2.495
X2.211 Z-2.479
X2.195 Z-2.457
X2.19 Z-2.43
G0 Z3
Y5.43
Z2
G1 Z1.7 F333.3
Z-0.63
X2.195 Z-0.657
X2.211 Z-0.679
X2.233 Z-0.695
X2.26 Z-0.7
X2.33 F1000
X2.357 Y5.435
X2.379 Y5.451
X2.395 Y5.473
X2.4 Y5.5
G3 X-2.4 I-2.4 F300
X2.4 I2.4
G1 X2.395 Y5.527 F1000
X2.379 Y5.549
X2.357 Y5.565
X2.33 Y5.57
X2.26
X2.233 Z-0.695
X2.211 Z-0.679
X2.195 Z-0.657
X2.19 Z-0.63
G0 Z3
Y5.43
Z2
G1 Z1 F333.3
Z-1.33
X2.195 Z-1.357
X2.211 Z-1.379
X2.233 Z-1.395
X2.26 Z-1.4
X2.33 F1000
X2.357 Y5.435
X2.379 Y5.451
X2.395 Y5.473
X2.4 Y5.5
G3 X-2.4 I-2.4 F300
X2.4 I2.4
G1 X2.395 Y5.527 F1000
X2.379 Y5.549
X2.357 Y5.565
X2.33 Y5.57
X2.26
X2.233 Z-1.395
X2.211 Z-1.379
X2.195 Z-1.357
X2.19 Z-1.33
G0 Z3
Y5.43
Z2
G1 Z0.3 F333.3
Z-2.03
X2.195 Z-2.057
X2.211 Z-2.079
X2.233 Z-2.095
X2.26 Z-2.1
X2.33 F1000
X2.357 Y5.435
X2.379 Y5.451
X2.395 Y5.473
X2.4 Y5.5
G3 X-2.4 I-2.4 F300
X2.4 I2.4
G1 X2.395 Y5.527 F1000
X2.379 Y5.549
X2.357 Y5.565
X2.33 Y5.57
X2.26
X2.233 Z-2.095
X2.211 Z-2.079
X2.195 Z-2.057
X2.19 Z-2.03
G0 Z3
Y5.43
Z2
G1 Z-0.4 F333.3
Z-2.43
X2.195 Z-2.457
X2.211 Z-2.479
X2.233 Z-2.495
X2.26 Z-2.5
X2.33 F1000
X2.357 Y5.435
X2.379 Y5.451
X2.395 Y5.473
X2.4 Y5.5
G3 X-2.4 I-2.4 F300
X2.4 I2.4
G1 X2.395 Y5.527 F1000
X2.379 Y5.549
X2.357 Y5.565
X2.33 Y5.57
X2.26
X2.233 Z-2.495
X2.211 Z-2.479
X2.195 Z-2.457
X2.19 Z-2.43
G0 Z3
X9.44 Y19.93
Z2
G1 Z1.7 F333.3
Z-0.63
X9.445 Z-0.657
X9.461 Z-0.679
X9.483 Z-0.695
X9.51 Z-0.7
X9.58 F1000
X9.607 Y19.935
X9.629 Y19.951
X9.645 Y19.973
X9.65 Y20
G3 X6.35 I-1.65 F300
X9.65 I1.65
G1 X9.645 Y20.027 F1000
X9.629 Y20.049
X9.607 Y20.065
X9.58 Y20.07
X9.51
X9.483 Z-0.695
X9.461 Z-0.679
X9.445 Z-0.657
X9.44 Z-0.63
G0 Z3
Y19.93
Z2
G1 Z1 F333.3
Z-1.33
X9.445 Z-1.357
X9.461 Z-1.379
X9.483 Z-1.395
X9.51 Z-1.4
X9.58 F1000
X9.607 Y19.935
X9.629 Y19.951
X9.645 Y19.973
X9.65 Y20
G3 X6.35 I-1.65 F300
X9.65 I1.65
G1 X9.645 Y20.027 F1000
X9.629 Y20.049
X9.607 Y20.065
X9.58 Y20.07
X9.51
X9.483 Z-1.395
X9.461 Z-1.379
X9.445 Z-1.357
X9.44 Z-1.33
G0 Z3
Y19.93
Z2
G1 Z0.3 F333.3
Z-2.03
X9.445 Z-2.057
X9.461 Z-2.079
X9.483 Z-2.095
X9.51 Z-2.1
X9.58 F1000
X9.607 Y19.935
X9.629 Y19.951
X9.645 Y19.973
X9.65 Y20
G3 X6.35 I-1.65 F300
X9.65 I1.65
G1 X9.645 Y20.027 F1000
X9.629 Y20.049
X9.607 Y20.065
X9.58 Y20.07
X9.51
X9.483 Z-2.095
X9.461 Z-2.079
X9.445 Z-2.057
X9.44 Z-2.03
G0 Z3
Y19.93
Z2
G1 Z-0.4 F333.3
Z-2.43
X9.445 Z-2.457
X9.461 Z-2.479
X9.483 Z-2.495
X9.51 Z-2.5
X9.58 F1000
X9.607 Y19.935
X9.629 Y19.951
X9.645 Y19.973
X9.65 Y20
G3 X6.35 I-1.65 F300
X9.65 I1.65
G1 X9.645 Y20.027 F1000
X9.629 Y20.049
X9.607 Y20.065
X9.58 Y20.07
X9.51
X9.483 Z-2.495
X9.461 Z-2.479
X9.445 Z-2.457
X9.44 Z-2.43
G0 Z3
X43.89 Y19.28
Z2
G1 Z1.7 F333.3
Z-0.63
X43.895 Z-0.657
X43.911 Z-0.679
X43.933 Z-0.695
X43.96 Z-0.7
X44.03 F1000
X44.057 Y19.285
X44.079 Y19.301
X44.095 Y19.323
X44.1 Y19.35
G3 X41.6 I-1.25 F300
X44.1 I1.25
G1 X44.095 Y19.377 F1000
X44.079 Y19.399
X44.057 Y19.415
X44.03 Y19.42
X43.96
X43.933 Z-0.695
X43.911 Z-0.679
X43.895 Z-0.657
X43.89 Z-0.63
G0 Z3
Y19.28
Z2
G1 Z1 F333.3
Z-1.33
X43.895 Z-1.357
X43.911 Z-1.379
X43.933 Z-1.395
X43.96 Z-1.4
X44.03 F1000
X44.057 Y19.285
X44.079 Y19.301
X44.095 Y19.323
X44.1 Y19.35
G3 X41.6 I-1.25 F300
X44.1 I1.25
G1 X44.095 Y19.377 F1000
X44.079 Y19.399
X44.057 Y19.415
X44.03 Y19.42
X43.96
X43.933 Z-1.395
X43.911 Z-1.379
X43.895 Z-1.357
X43.89 Z-1.33
G0 Z3
Y19.28
Z2
G1 Z0.3 F333.3
Z-2.03
X43.895 Z-2.057
X43.911 Z-2.079
X43.933 Z-2.095
X43.96 Z-2.1
X44.03 F1000
X44.057 Y19.285
X44.079 Y19.301
X44.095 Y19.323
X44.1 Y19.35
G3 X41.6 I-1.25 F300
X44.1 I1.25
G1 X44.095 Y19.377 F1000
X44.079 Y19.399
X44.057 Y19.415
X44.03 Y19.42
X43.96
X43.933 Z-2.095
X43.911 Z-2.079
X43.895 Z-2.057
X43.89 Z-2.03
G0 Z3
Y19.28
Z2
G1 Z-0.4 F333.3
Z-2.43
X43.895 Z-2.457
X43.911 Z-2.479
X43.933 Z-2.495
X43.96 Z-2.5
X44.03 F1000
X44.057 Y19.285
X44.079 Y19.301
X44.095 Y19.323
X44.1 Y19.35
G3 X41.6 I-1.25 F300
X44.1 I1.25
G1 X44.095 Y19.377 F1000
X44.079 Y19.399
X44.057 Y19.415
X44.03 Y19.42
X43.96
X43.933 Z-2.495
X43.911 Z-2.479
X43.895 Z-2.457
X43.89 Z-2.43
G0 Z3
Y-19.42
Z2
G1 Z1.7 F333.3
Z-0.63
X43.895 Z-0.657
X43.911 Z-0.679
X43.933 Z-0.695
X43.96 Z-0.7
X44.03 F1000
X44.057 Y-19.415
X44.079 Y-19.399
X44.095 Y-19.377
X44.1 Y-19.35
G3 X41.6 I-1.25 F300
X44.1 I1.25
G1 X44.095 Y-19.323 F1000
X44.079 Y-19.301
X44.057 Y-19.285
X44.03 Y-19.28
X43.96
X43.933 Z-0.695
X43.911 Z-0.679
X43.895 Z-0.657
X43.89 Z-0.63
G0 Z3
Y-19.42
Z2
G1 Z1 F333.3
Z-1.33
X43.895 Z-1.357
X43.911 Z-1.379
X43.933 Z-1.395
X43.96 Z-1.4
X44.03 F1000
X44.057 Y-19.415
X44.079 Y-19.399
X44.095 Y-19.377
X44.1 Y-19.35
G3 X41.6 I-1.25 F300
X44.1 I1.25
G1 X44.095 Y-19.323 F1000
X44.079 Y-19.301
X44.057 Y-19.285
X44.03 Y-19.28
X43.96
X43.933 Z-1.395
X43.911 Z-1.379
X43.895 Z-1.357
X43.89 Z-1.33
G0 Z3
Y-19.42
Z2
G1 Z0.3 F333.3
Z-2.03
X43.895 Z-2.057
X43.911 Z-2.079
X43.933 Z-2.095
X43.96 Z-2.1
X44.03 F1000
X44.057 Y-19.415
X44.079 Y-19.399
X44.095 Y-19.377
X44.1 Y-19.35
G3 X41.6 I-1.25 F300
X44.1 I1.25
G1 X44.095 Y-19.323 F1000
X44.079 Y-19.301
X44.057 Y-19.285
X44.03 Y-19.28
X43.96
X43.933 Z-2.095
X43.911 Z-2.079
X43.895 Z-2.057
X43.89 Z-2.03
G0 Z3
Y-19.42
Z2
G1 Z-0.4 F333.3
Z-2.43
X43.895 Z-2.457
X43.911 Z-2.479
X43.933 Z-2.495
X43.96 Z-2.5
X44.03 F1000
X44.057 Y-19.415
X44.079 Y-19.399
X44.095 Y-19.377
X44.1 Y-19.35
G3 X41.6 I-1.25 F300
X44.1 I1.25
G1 X44.095 Y-19.323 F1000
X44.079 Y-19.301
X44.057 Y-19.285
X44.03 Y-19.28
X43.96
X43.933 Z-2.495
X43.911 Z-2.479
X43.895 Z-2.457
X43.89 Z-2.43
G0 Z3
X34.454 Y-19.084
Z2
G1 Z1.7 F333.3
Z-0.63
X34.459 Z-0.657
X34.474 Z-0.679
X34.497 Z-0.695
X34.524 Z-0.7
X34.594 F1000
X34.621 Y-19.079
X34.643 Y-19.064
X34.659 Y-19.041
X34.664 Y-19.014
G3 X31.364 I-1.65 F300
X34.664 I1.65
G1 X34.659 Y-18.988 F1000
X34.643 Y-18.965
X34.621 Y-18.95
X34.594 Y-18.944
X34.524
X34.497 Z-0.695
X34.474 Z-0.679
X34.459 Z-0.657
X34.454 Z-0.63
G0 Z3
Y-19.084
Z2
G1 Z1 F333.3
Z-1.33
X34.459 Z-1.357
X34.474 Z-1.379
X34.497 Z-1.395
X34.524 Z-1.4
X34.594 F1000
X34.621 Y-19.079
X34.643 Y-19.064
X34.659 Y-19.041
X34.664 Y-19.014
G3 X31.364 I-1.65 F300
X34.664 I1.65
G1 X34.659 Y-18.988 F1000
X34.643 Y-18.965
X34.621 Y-18.95
X34.594 Y-18.944
X34.524
X34.497 Z-1.395
X34.474 Z-1.379
X34.459 Z-1.357
X34.454 Z-1.33
G0 Z3
Y-19.084
Z2
G1 Z0.3 F333.3
Z-2.03
X34.459 Z-2.057
X34.474 Z-2.079
X34.497 Z-2.095
X34.524 Z-2.1
X34.594 F1000
X34.621 Y-19.079
X34.643 Y-19.064
X34.659 Y-19.041
X34.664 Y-19.014
G3 X31.364 I-1.65 F300
X34.664 I1.65
G1 X34.659 Y-18.988 F1000
X34.643 Y-18.965
X34.621 Y-18.95
X34.594 Y-18.944
X34.524
X34.497 Z-2.095
X34.474 Z-2.079
X34.459 Z-2.057
X34.454 Z-2.03
G0 Z3
Y-19.084
Z2
G1 Z-0.4 F333.3
Z-2.43
X34.459 Z-2.457
X34.474 Z-2.479
X34.497 Z-2.495
X34.524 Z-2.5
X34.594 F1000
X34.621 Y-19.079
X34.643 Y-19.064
X34.659 Y-19.041
X34.664 Y-19.014
G3 X31.364 I-1.65 F300
X34.664 I1.65
G1 X34.659 Y-18.988 F1000
X34.643 Y-18.965
X34.621 Y-18.95
X34.594 Y-18.944
X34.524
X34.497 Z-2.495
X34.474 Z-2.479
X34.459 Z-2.457
X34.454 Z-2.43
G0 Z3
X15.982 Y-19.06
Z2
G1 Z1.7 F333.3
Z-0.63
X15.988 Z-0.657
X16.003 Z-0.679
X16.025 Y-19.059 Z-0.695
X16.052 Z-0.7
X16.122 Y-19.057 F1000
X16.149 Y-19.051
X16.171 Y-19.035
X16.186 Y-19.012
X16.191 Y-18.985
G3 X12.891 Y-19.066 I-1.65 J-0.04 F300
X16.191 Y-18.985 I1.65 J0.04
G1 X16.185 Y-18.958 F1000
X16.169 Y-18.936
X16.146 Y-18.922
X16.119 Y-18.917
X16.049 Y-18.919
X16.022 Z-0.695
X15.999 Y-18.92 Z-0.679
X15.984 Z-0.657
X15.979 Z-0.63
G0 Z3
X15.982 Y-19.06
Z2
G1 Z1 F333.3
Z-1.33
X15.988 Z-1.357
X16.003 Z-1.379
X16.025 Y-19.059 Z-1.395
X16.052 Z-1.4
X16.122 Y-19.057 F1000
X16.149 Y-19.051
X16.171 Y-19.035
X16.186 Y-19.012
X16.191 Y-18.985
G3 X12.891 Y-19.066 I-1.65 J-0.04 F300
X16.191 Y-18.985 I1.65 J0.04
G1 X16.185 Y-18.958 F1000
X16.169 Y-18.936
X16.146 Y-18.922
X16.119 Y-18.917
X16.049 Y-18.919
X16.022 Z-1.395
X15.999 Y-18.92 Z-1.379
X15.984 Z-1.357
X15.979 Z-1.33
G0 Z3
X15.982 Y-19.06
Z2
G1 Z0.3 F333.3
Z-2.03
X15.988 Z-2.057
X16.003 Z-2.079
X16.025 Y-19.059 Z-2.095
X16.052 Z-2.1
X16.122 Y-19.057 F1000
X16.149 Y-19.051
X16.171 Y-19.035
X16.186 Y-19.012
X16.191 Y-18.985
G3 X12.891 Y-19.066 I-1.65 J-0.04 F300
X16.191 Y-18.985 I1.65 J0.04
G1 X16.185 Y-18.958 F1000
X16.169 Y-18.936
X16.146 Y-18.922
X16.119 Y-18.917
X16.049 Y-18.919
X16.022 Z-2.095
X15.999 Y-18.92 Z-2.079
X15.984 Z-2.057
X15.979 Z-2.03
G0 Z3
X15.982 Y-19.06
Z2
G1 Z-0.4 F333.3
Z-2.43
X15.988 Z-2.457
X16.003 Z-2.479
X16.025 Y-19.059 Z-2.495
X16.052 Z-2.5
X16.122 Y-19.057 F1000
X16.149 Y-19.051
X16.171 Y-19.035
X16.186 Y-19.012
X16.191 Y-18.985
G3 X12.891 Y-19.066 I-1.65 J-0.04 F300
X16.191 Y-18.985 I1.65 J0.04
G1 X16.185 Y-18.958 F1000
X16.169 Y-18.936
X16.146 Y-18.922
X16.119 Y-18.917
X16.049 Y-18.919
X16.022 Z-2.495
X15.999 Y-18.92 Z-2.479
X15.984 Z-2.457
X15.979 Z-2.43
G0 Z3
X3.19 Y-15.07
Z2
G1 Z1.7 F333.3
Z-0.63
X3.195 Z-0.657
X3.211 Z-0.679
X3.233 Z-0.695
X3.26 Z-0.7
X3.33 F1000
X3.357 Y-15.065
X3.379 Y-15.049
X3.395 Y-15.027
X3.4 Y-15
G3 X-3.4 I-3.4 F300
X3.4 I3.4
G1 X3.395 Y-14.973 F1000
X3.379 Y-14.951
X3.357 Y-14.935
X3.33 Y-14.93
X3.26
X3.233 Z-0.695
X3.211 Z-0.679
X3.195 Z-0.657
X3.19 Z-0.63
G0 Z3
Y-15.07
Z2
G1 Z1 F333.3
Z-1.33
X3.195 Z-1.357
X3.211 Z-1.379
X3.233 Z-1.395
X3.26 Z-1.4
X3.33 F1000
X3.357 Y-15.065
X3.379 Y-15.049
X3.395 Y-15.027
X3.4 Y-15
G3 X-3.4 I-3.4 F300
X3.4 I3.4
G1 X3.395 Y-14.973 F1000
X3.379 Y-14.951
X3.357 Y-14.935
X3.33 Y-14.93
X3.26
X3.233 Z-1.395
X3.211 Z-1.379
X3.195 Z-1.357
X3.19 Z-1.33
G0 Z3
Y-15.07
Z2
G1 Z0.3 F333.3
Z-2.03
X3.195 Z-2.057
X3.211 Z-2.079
X3.233 Z-2.095
X3.26 Z-2.1
X3.33 F1000
X3.357 Y-15.065
X3.379 Y-15.049
X3.395 Y-15.027
X3.4 Y-15
G3 X-3.4 I-3.4 F300
X3.4 I3.4
G1 X3.395 Y-14.973 F1000
X3.379 Y-14.951
X3.357 Y-14.935
X3.33 Y-14.93
X3.26
X3.233 Z-2.095
X3.211 Z-2.079
X3.195 Z-2.057
X3.19 Z-2.03
G0 Z3
Y-15.07
Z2
G1 Z-0.4 F333.3
Z-2.43
X3.195 Z-2.457
X3.211 Z-2.479
X3.233 Z-2.495
X3.26 Z-2.5
X3.33 F1000
X3.357 Y-15.065
X3.379 Y-15.049
X3.395 Y-15.027
X3.4 Y-15
G3 X-3.4 I-3.4 F300
X3.4 I3.4
G1 X3.395 Y-14.973 F1000
X3.379 Y-14.951
X3.357 Y-14.935
X3.33 Y-14.93
X3.26
X3.233 Z-2.495
X3.211 Z-2.479
X3.195 Z-2.457
X3.19 Z-2.43
G0 Z3
X-13.108 Y-19.101
Z2
G1 Z1.7 F333.3
Z-0.63
X-13.102 Z-0.657
X-13.087 Z-0.679
X-13.064 Z-0.695
X-13.038 Z-0.7
X-12.967 F1000
X-12.941 Y-19.095
X-12.918 Y-19.08
X-12.903 Y-19.057
X-12.898 Y-19.031
G3 X-16.197 I-1.65 F300
X-12.898 I1.65
G1 X-12.903 Y-19.004 F1000
X-12.918 Y-18.981
X-12.941 Y-18.966
X-12.967 Y-18.961
X-13.038
X-13.064 Z-0.695
X-13.087 Z-0.679
X-13.102 Z-0.657
X-13.108 Z-0.63
G0 Z3
Y-19.101
Z2
G1 Z1 F333.3
Z-1.33
X-13.102 Z-1.357
X-13.087 Z-1.379
X-13.064 Z-1.395
X-13.038 Z-1.4
X-12.967 F1000
X-12.941 Y-19.095
X-12.918 Y-19.08
X-12.903 Y-19.057
X-12.898 Y-19.031
G3 X-16.197 I-1.65 F300
X-12.898 I1.65
G1 X-12.903 Y-19.004 F1000
X-12.918 Y-18.981
X-12.941 Y-18.966
X-12.967 Y-18.961
X-13.038
X-13.064 Z-1.395
X-13.087 Z-1.379
X-13.102 Z-1.357
X-13.108 Z-1.33
G0 Z3
Y-19.101
Z2
G1 Z0.3 F333.3
Z-2.03
X-13.102 Z-2.057
X-13.087 Z-2.079
X-13.064 Z-2.095
X-13.038 Z-2.1
X-12.967 F1000
X-12.941 Y-19.095
X-12.918 Y-19.08
X-12.903 Y-19.057
X-12.898 Y-19.031
G3 X-16.197 I-1.65 F300
X-12.898 I1.65
G1 X-12.903 Y-19.004 F1000
X-12.918 Y-18.981
X-12.941 Y-18.966
X-12.967 Y-18.961
X-13.038
X-13.064 Z-2.095
X-13.087 Z-2.079
X-13.102 Z-2.057
X-13.108 Z-2.03
G0 Z3
Y-19.101
Z2
G1 Z-0.4 F333.3
Z-2.43
X-13.102 Z-2.457
X-13.087 Z-2.479
X-13.064 Z-2.495
X-13.038 Z-2.5
X-12.967 F1000
X-12.941 Y-19.095
X-12.918 Y-19.08
X-12.903 Y-19.057
X-12.898 Y-19.031
G3 X-16.197 I-1.65 F300
X-12.898 I1.65
G1 X-12.903 Y-19.004 F1000
X-12.918 Y-18.981
X-12.941 Y-18.966
X-12.967 Y-18.961
X-13.038
X-13.064 Z-2.495
X-13.087 Z-2.479
X-13.102 Z-2.457
X-13.108 Z-2.43
G0 Z3
X-31.567 Y-19.06
Z2
G1 Z1.7 F333.3
Z-0.63
X-31.562 Z-0.657
X-31.547 Z-0.679
X-31.524 Y-19.059 Z-0.695
X-31.497 Z-0.7
X-31.427 Y-19.057 F1000
X-31.401 Y-19.051
X-31.378 Y-19.035
X-31.364 Y-19.012
X-31.359 Y-18.985
G3 X-34.658 Y-19.066 I-1.65 J-0.04 F300
X-31.359 Y-18.985 I1.65 J0.04
G1 X-31.365 Y-18.958 F1000
X-31.381 Y-18.936
X-31.404 Y-18.922
X-31.431 Y-18.917
X-31.501 Y-18.919
X-31.527 Z-0.695
X-31.55 Y-18.92 Z-0.679
X-31.565 Z-0.657
X-31.571 Z-0.63
G0 Z3
X-31.567 Y-19.06
Z2
G1 Z1 F333.3
Z-1.33
X-31.562 Z-1.357
X-31.547 Z-1.379
X-31.524 Y-19.059 Z-1.395
X-31.497 Z-1.4
X-31.427 Y-19.057 F1000
X-31.401 Y-19.051
X-31.378 Y-19.035
X-31.364 Y-19.012
X-31.359 Y-18.985
G3 X-34.658 Y-19.066 I-1.65 J-0.04 F300
X-31.359 Y-18.985 I1.65 J0.04
G1 X-31.365 Y-18.958 F1000
X-31.381 Y-18.936
X-31.404 Y-18.922
X-31.431 Y-18.917
X-31.501 Y-18.919
X-31.527 Z-1.395
X-31.55 Y-18.92 Z-1.379
X-31.565 Z-1.357
X-31.571 Z-1.33
G0 Z3
X-31.567 Y-19.06
Z2
G1 Z0.3 F333.3
Z-2.03
X-31.562 Z-2.057
X-31.547 Z-2.079
X-31.524 Y-19.059 Z-2.095
X-31.497 Z-2.1
X-31.427 Y-19.057 F1000
X-31.401 Y-19.051
X-31.378 Y-19.035
X-31.364 Y-19.012
X-31.359 Y-18.985
G3 X-34.658 Y-19.066 I-1.65 J-0.04 F300
X-31.359 Y-18.985 I1.65 J0.04
G1 X-31.365 Y-18.958 F1000
X-31.381 Y-18.936
X-31.404 Y-18.922
X-31.431 Y-18.917
X-31.501 Y-18.919
X-31.527 Z-2.095
X-31.55 Y-18.92 Z-2.079
X-31.565 Z-2.057
X-31.571 Z-2.03
G0 Z3
X-31.567 Y-19.06
Z2
G1 Z-0.4 F333.3
Z-2.43
X-31.562 Z-2.457
X-31.547 Z-2.479
X-31.524 Y-19.059 Z-2.495
X-31.497 Z-2.5
X-31.427 Y-19.057 F1000
X-31.401 Y-19.051
X-31.378 Y-19.035
X-31.364 Y-19.012
X-31.359 Y-18.985
G3 X-34.658 Y-19.066 I-1.65 J-0.04 F300
X-31.359 Y-18.985 I1.65 J0.04
G1 X-31.365 Y-18.958 F1000
X-31.381 Y-18.936
X-31.404 Y-18.922
X-31.431 Y-18.917
X-31.501 Y-18.919
X-31.527 Z-2.495
X-31.55 Y-18.92 Z-2.479
X-31.565 Z-2.457
X-31.571 Z-2.43
G0 Z3
X-41.81 Y-19.42
Z2
G1 Z1.7 F333.3
Z-0.63
X-41.805 Z-0.657
X-41.789 Z-0.679
X-41.767 Z-0.695
X-41.74 Z-0.7
X-41.67 F1000
X-41.643 Y-19.415
X-41.621 Y-19.399
X-41.605 Y-19.377
X-41.6 Y-19.35
G3 X-44.1 I-1.25 F300
X-41.6 I1.25
G1 X-41.605 Y-19.323 F1000
X-41.621 Y-19.301
X-41.643 Y-19.285
X-41.67 Y-19.28
X-41.74
X-41.767 Z-0.695
X-41.789 Z-0.679
X-41.805 Z-0.657
X-41.81 Z-0.63
G0 Z3
Y-19.42
Z2
G1 Z1 F333.3
Z-1.33
X-41.805 Z-1.357
X-41.789 Z-1.379
X-41.767 Z-1.395
X-41.74 Z-1.4
X-41.67 F1000
X-41.643 Y-19.415
X-41.621 Y-19.399
X-41.605 Y-19.377
X-41.6 Y-19.35
G3 X-44.1 I-1.25 F300
X-41.6 I1.25
G1 X-41.605 Y-19.323 F1000
X-41.621 Y-19.301
X-41.643 Y-19.285
X-41.67 Y-19.28
X-41.74
X-41.767 Z-1.395
X-41.789 Z-1.379
X-41.805 Z-1.357
X-41.81 Z-1.33
G0 Z3
Y-19.42
Z2
G1 Z0.3 F333.3
Z-2.03
X-41.805 Z-2.057
X-41.789 Z-2.079
X-41.767 Z-2.095
X-41.74 Z-2.1
X-41.67 F1000
X-41.643 Y-19.415
X-41.621 Y-19.399
X-41.605 Y-19.377
X-41.6 Y-19.35
G3 X-44.1 I-1.25 F300
X-41.6 I1.25
G1 X-41.605 Y-19.323 F1000
X-41.621 Y-19.301
X-41.643 Y-19.285
X-41.67 Y-19.28
X-41.74
X-41.767 Z-2.095
X-41.789 Z-2.079
X-41.805 Z-2.057
X-41.81 Z-2.03
G0 Z3
Y-19.42
Z2
G1 Z-0.4 F333.3
Z-2.43
X-41.805 Z-2.457
X-41.789 Z-2.479
X-41.767 Z-2.495
X-41.74 Z-2.5
X-41.67 F1000
X-41.643 Y-19.415
X-41.621 Y-19.399
X-41.605 Y-19.377
X-41.6 Y-19.35
G3 X-44.1 I-1.25 F300
X-41.6 I1.25
G1 X-41.605 Y-19.323 F1000
X-41.621 Y-19.301
X-41.643 Y-19.285
X-41.67 Y-19.28
X-41.74
X-41.767 Z-2.495
X-41.789 Z-2.479
X-41.805 Z-2.457
X-41.81 Z-2.43
G0 Z3
Y19.28
Z2
G1 Z1.7 F333.3
Z-0.63
X-41.805 Z-0.657
X-41.789 Z-0.679
X-41.767 Z-0.695
X-41.74 Z-0.7
X-41.67 F1000
X-41.643 Y19.285
X-41.621 Y19.301
X-41.605 Y19.323
X-41.6 Y19.35
G3 X-44.1 I-1.25 F300
X-41.6 I1.25
G1 X-41.605 Y19.377 F1000
X-41.621 Y19.399
X-41.643 Y19.415
X-41.67 Y19.42
X-41.74
X-41.767 Z-0.695
X-41.789 Z-0.679
X-41.805 Z-0.657
X-41.81 Z-0.63
G0 Z3
Y19.28
Z2
G1 Z1 F333.3
Z-1.33
X-41.805 Z-1.357
X-41.789 Z-1.379
X-41.767 Z-1.395
X-41.74 Z-1.4
X-41.67 F1000
X-41.643 Y19.285
X-41.621 Y19.301
X-41.605 Y19.323
X-41.6 Y19.35
G3 X-44.1 I-1.25 F300
X-41.6 I1.25
G1 X-41.605 Y19.377 F1000
X-41.621 Y19.399
X-41.643 Y19.415
X-41.67 Y19.42
X-41.74
X-41.767 Z-1.395
X-41.789 Z-1.379
X-41.805 Z-1.357
X-41.81 Z-1.33
G0 Z3
Y19.28
Z2
G1 Z0.3 F333.3
Z-2.03
X-41.805 Z-2.057
X-41.789 Z-2.079
X-41.767 Z-2.095
X-41.74 Z-2.1
X-41.67 F1000
X-41.643 Y19.285
X-41.621 Y19.301
X-41.605 Y19.323
X-41.6 Y19.35
G3 X-44.1 I-1.25 F300
X-41.6 I1.25
G1 X-41.605 Y19.377 F1000
X-41.621 Y19.399
X-41.643 Y19.415
X-41.67 Y19.42
X-41.74
X-41.767 Z-2.095
X-41.789 Z-2.079
X-41.805 Z-2.057
X-41.81 Z-2.03
G0 Z3
Y19.28
Z2
G1 Z-0.4 F333.3
Z-2.43
X-41.805 Z-2.457
X-41.789 Z-2.479
X-41.767 Z-2.495
X-41.74 Z-2.5
X-41.67 F1000
X-41.643 Y19.285
X-41.621 Y19.301
X-41.605 Y19.323
X-41.6 Y19.35
G3 X-44.1 I-1.25 F300
X-41.6 I1.25
G1 X-41.605 Y19.377 F1000
X-41.621 Y19.399
X-41.643 Y19.415
X-41.67 Y19.42
X-41.74
X-41.767 Z-2.495
X-41.789 Z-2.479
X-41.805 Z-2.457
X-41.81 Z-2.43
G0 Z8

(2D Contour8)
X47.106 Y-28.06
Z8
Z2
G1 Z1.7 F333.3
Z-0.63
Y-28.055 Z-0.657
Y-28.039 Z-0.679
Y-28.017 Z-0.695
Y-27.99 Z-0.7
Y-27.92 F1000
X47.1 Y-27.893
X47.085 Y-27.871
X47.062 Y-27.855
X47.036 Y-27.85
X-48.25 F300
G2 X-51.1 Y-25 J2.85
G1 Y25
G2 X-48.25 Y27.85 I2.85
G1 X48.25
G2 X51.1 Y25 J-2.85
G1 Y-25
G2 X48.25 Y-27.85 I-2.85
G1 X47.036
X47.009 Y-27.855 F1000
X46.986 Y-27.871
X46.971 Y-27.893
X46.966 Y-27.92
Y-27.99
Y-28.017 Z-0.695
Y-28.039 Z-0.679
Y-28.055 Z-0.657
Y-28.06 Z-0.63
G0 Z3
X47.106
Z2
G1 Z1 F333.3
Z-1.33
Y-28.055 Z-1.357
Y-28.039 Z-1.379
Y-28.017 Z-1.395
Y-27.99 Z-1.4
Y-27.92 F1000
X47.1 Y-27.893
X47.085 Y-27.871
X47.062 Y-27.855
X47.036 Y-27.85
X-48.25 F300
G2 X-51.1 Y-25 J2.85
G1 Y25
G2 X-48.25 Y27.85 I2.85
G1 X48.25
G2 X51.1 Y25 J-2.85
G1 Y-25
G2 X48.25 Y-27.85 I-2.85
G1 X47.036
X47.009 Y-27.855 F1000
X46.986 Y-27.871
X46.971 Y-27.893
X46.966 Y-27.92
Y-27.99
Y-28.017 Z-1.395
Y-28.039 Z-1.379
Y-28.055 Z-1.357
Y-28.06 Z-1.33
G0 Z3
X47.106
Z2
G1 Z0.3 F333.3
Z-2.03
Y-28.055 Z-2.057
Y-28.039 Z-2.079
Y-28.017 Z-2.095
Y-27.99 Z-2.1
Y-27.92 F1000
X47.1 Y-27.893
X47.085 Y-27.871
X47.062 Y-27.855
X47.036 Y-27.85
X-48.25 F300
G2 X-51.1 Y-25 J2.85
G1 Y25
G2 X-48.25 Y27.85 I2.85
G1 X48.25
G2 X51.1 Y25 J-2.85
G1 Y-25
G2 X48.25 Y-27.85 I-2.85
G1 X47.036
X47.009 Y-27.855 F1000
X46.986 Y-27.871
X46.971 Y-27.893
X46.966 Y-27.92
Y-27.99
Y-28.017 Z-2.095
Y-28.039 Z-2.079
Y-28.055 Z-2.057
Y-28.06 Z-2.03
G0 Z3
X47.106
Z2
G1 Z-0.4 F333.3
Z-2.43
Y-28.055 Z-2.457
Y-28.039 Z-2.479
Y-28.017 Z-2.495
Y-27.99 Z-2.5
Y-27.92 F1000
X47.1 Y-27.893
X47.085 Y-27.871
X47.062 Y-27.855
X47.036 Y-27.85
X-48.25 F300
G2 X-51.1 Y-25 J2.85
G1 Y25
G2 X-48.25 Y27.85 I2.85
G1 X48.25
G2 X51.1 Y25 J-2.85
G1 Y-25
G2 X48.25 Y-27.85 I-2.85
G1 X47.036
X47.009 Y-27.855 F1000
X46.986 Y-27.871
X46.971 Y-27.893
X46.966 Y-27.92
Y-27.99
Y-28.017 Z-2.495
Y-28.039 Z-2.479
Y-28.055 Z-2.457
Y-28.06 Z-2.43
G0 Z8
M9
M30
%
