%
(Layer2 v3)
(T1  D=0.7 CR=0 - ZMIN=-2.5 - flat end mill)
G90 G94
G17
G21

(2D Contour4)
M9
S5000 M3
G54
M8
G0 X10.919 Y18.786
Z8
Z2
G1 Z1.7 F333.3
Z-0.63
Y18.791 Z-0.657
X10.922 Y18.806 Z-0.679
X10.925 Y18.829 Z-0.695
X10.929 Y18.855 Z-0.7
X10.938 Y18.924 F1000
X10.937 Y18.952
X10.925 Y18.976
X10.905 Y18.994
X10.879 Y19.004
G2 X10.587 Y19.426 I0.05 J0.346 F300
G3 X5.413 Y20.574 I-2.587 J0.574
Y19.426 I2.587 J-0.574
G2 X5.071 Y19 I-0.342 J-0.076
G1 X-39.518
G2 X-42.85 Y16 I-3.332 J0.35
G1 X-46.875
Y-16
X-42.85
G2 X-39.5 Y-19.35 J-3.35
G1 Y-21.405
X39.5
Y-19.35
G2 X42.85 Y-16 I3.35
G1 X46.875
Y16
X42.85
G2 X39.518 Y19 J3.35
G1 X10.929
X10.879 Y19.004
X10.852 Y19.002 F1000
X10.827 Y18.99
X10.809 Y18.97
X10.8 Y18.944
X10.79 Y18.875
X10.786 Y18.848 Z-0.695
X10.783 Y18.826 Z-0.679
X10.781 Y18.811 Z-0.657
X10.78 Y18.806 Z-0.63
G0 Z3
X10.919 Y18.786
Z2
G1 Z1 F333.3
Z-1.33
Y18.791 Z-1.357
X10.922 Y18.806 Z-1.379
X10.925 Y18.829 Z-1.395
X10.929 Y18.855 Z-1.4
X10.938 Y18.924 F1000
X10.937 Y18.952
X10.925 Y18.976
X10.905 Y18.994
X10.879 Y19.004
G2 X10.587 Y19.426 I0.05 J0.346 F300
G3 X5.413 Y20.574 I-2.587 J0.574
Y19.426 I2.587 J-0.574
G2 X5.071 Y19 I-0.342 J-0.076
G1 X-39.518
G2 X-42.85 Y16 I-3.332 J0.35
G1 X-46.875
Y-16
X-42.85
G2 X-39.5 Y-19.35 J-3.35
G1 Y-21.405
X39.5
Y-19.35
G2 X42.85 Y-16 I3.35
G1 X46.875
Y16
X42.85
G2 X39.518 Y19 J3.35
G1 X10.929
X10.879 Y19.004
X10.852 Y19.002 F1000
X10.827 Y18.99
X10.809 Y18.97
X10.8 Y18.944
X10.79 Y18.875
X10.786 Y18.848 Z-1.395
X10.783 Y18.826 Z-1.379
X10.781 Y18.811 Z-1.357
X10.78 Y18.806 Z-1.33
G0 Z3
X10.919 Y18.786
Z2
G1 Z0.3 F333.3
Z-2.03
Y18.791 Z-2.057
X10.922 Y18.806 Z-2.079
X10.925 Y18.829 Z-2.095
X10.929 Y18.855 Z-2.1
X10.938 Y18.924 F1000
X10.937 Y18.952
X10.925 Y18.976
X10.905 Y18.994
X10.879 Y19.004
G2 X10.587 Y19.426 I0.05 J0.346 F300
G3 X5.413 Y20.574 I-2.587 J0.574
Y19.426 I2.587 J-0.574
G2 X5.071 Y19 I-0.342 J-0.076
G1 X-39.518
G2 X-42.85 Y16 I-3.332 J0.35
G1 X-46.875
Y-16
X-42.85
G2 X-39.5 Y-19.35 J-3.35
G1 Y-21.405
X39.5
Y-19.35
G2 X42.85 Y-16 I3.35
G1 X46.875
Y16
X42.85
G2 X39.518 Y19 J3.35
G1 X10.929
X10.879 Y19.004
X10.852 Y19.002 F1000
X10.827 Y18.99
X10.809 Y18.97
X10.8 Y18.944
X10.79 Y18.875
X10.786 Y18.848 Z-2.095
X10.783 Y18.826 Z-2.079
X10.781 Y18.811 Z-2.057
X10.78 Y18.806 Z-2.03
G0 Z3
X10.919 Y18.786
Z2
G1 Z-0.4 F333.3
Z-2.43
Y18.791 Z-2.457
X10.922 Y18.806 Z-2.479
X10.925 Y18.829 Z-2.495
X10.929 Y18.855 Z-2.5
X10.938 Y18.924 F1000
X10.937 Y18.952
X10.925 Y18.976
X10.905 Y18.994
X10.879 Y19.004
G2 X10.587 Y19.426 I0.05 J0.346 F300
G3 X5.413 Y20.574 I-2.587 J0.574
Y19.426 I2.587 J-0.574
G2 X5.071 Y19 I-0.342 J-0.076
G1 X-39.518
G2 X-42.85 Y16 I-3.332 J0.35
G1 X-46.875
Y-16
X-42.85
G2 X-39.5 Y-19.35 J-3.35
G1 Y-21.405
X39.5
Y-19.35
G2 X42.85 Y-16 I3.35
G1 X46.875
Y16
X42.85
G2 X39.518 Y19 J3.35
G1 X10.929
X10.879 Y19.004
X10.852 Y19.002 F1000
X10.827 Y18.99
X10.809 Y18.97
X10.8 Y18.944
X10.79 Y18.875
X10.786 Y18.848 Z-2.495
X10.783 Y18.826 Z-2.479
X10.781 Y18.811 Z-2.457
X10.78 Y18.806 Z-2.43
G0 Z8

(2D Contour9)
X-41.81 Y-19.42
Z8
Z2
G1 Z1.7 F333.3
Z-0.63
X-41.805 Z-0.657
X-41.789 Z-0.679
X-41.767 Z-0.695
X-41.74 Z-0.7
X-41.67 F1000
X-41.643 Y-19.415
X-41.621 Y-19.399
X-41.605 Y-19.377
X-41.6 Y-19.35
G3 X-44.1 I-1.25 F300
X-41.6 I1.25
G1 X-41.605 Y-19.323 F1000
X-41.621 Y-19.301
X-41.643 Y-19.285
X-41.67 Y-19.28
X-41.74
X-41.767 Z-0.695
X-41.789 Z-0.679
X-41.805 Z-0.657
X-41.81 Z-0.63
G0 Z3
Y-19.42
Z2
G1 Z1 F333.3
Z-1.33
X-41.805 Z-1.357
X-41.789 Z-1.379
X-41.767 Z-1.395
X-41.74 Z-1.4
X-41.67 F1000
X-41.643 Y-19.415
X-41.621 Y-19.399
X-41.605 Y-19.377
X-41.6 Y-19.35
G3 X-44.1 I-1.25 F300
X-41.6 I1.25
G1 X-41.605 Y-19.323 F1000
X-41.621 Y-19.301
X-41.643 Y-19.285
X-41.67 Y-19.28
X-41.74
X-41.767 Z-1.395
X-41.789 Z-1.379
X-41.805 Z-1.357
X-41.81 Z-1.33
G0 Z3
Y-19.42
Z2
G1 Z0.3 F333.3
Z-2.03
X-41.805 Z-2.057
X-41.789 Z-2.079
X-41.767 Z-2.095
X-41.74 Z-2.1
X-41.67 F1000
X-41.643 Y-19.415
X-41.621 Y-19.399
X-41.605 Y-19.377
X-41.6 Y-19.35
G3 X-44.1 I-1.25 F300
X-41.6 I1.25
G1 X-41.605 Y-19.323 F1000
X-41.621 Y-19.301
X-41.643 Y-19.285
X-41.67 Y-19.28
X-41.74
X-41.767 Z-2.095
X-41.789 Z-2.079
X-41.805 Z-2.057
X-41.81 Z-2.03
G0 Z3
Y-19.42
Z2
G1 Z-0.4 F333.3
Z-2.43
X-41.805 Z-2.457
X-41.789 Z-2.479
X-41.767 Z-2.495
X-41.74 Z-2.5
X-41.67 F1000
X-41.643 Y-19.415
X-41.621 Y-19.399
X-41.605 Y-19.377
X-41.6 Y-19.35
G3 X-44.1 I-1.25 F300
X-41.6 I1.25
G1 X-41.605 Y-19.323 F1000
X-41.621 Y-19.301
X-41.643 Y-19.285
X-41.67 Y-19.28
X-41.74
X-41.767 Z-2.495
X-41.789 Z-2.479
X-41.805 Z-2.457
X-41.81 Z-2.43
G0 Z3
Y19.28
Z2
G1 Z1.7 F333.3
Z-0.63
X-41.805 Z-0.657
X-41.789 Z-0.679
X-41.767 Z-0.695
X-41.74 Z-0.7
X-41.67 F1000
X-41.643 Y19.285
X-41.621 Y19.301
X-41.605 Y19.323
X-41.6 Y19.35
G3 X-44.1 I-1.25 F300
X-41.6 I1.25
G1 X-41.605 Y19.377 F1000
X-41.621 Y19.399
X-41.643 Y19.415
X-41.67 Y19.42
X-41.74
X-41.767 Z-0.695
X-41.789 Z-0.679
X-41.805 Z-0.657
X-41.81 Z-0.63
G0 Z3
Y19.28
Z2
G1 Z1 F333.3
Z-1.33
X-41.805 Z-1.357
X-41.789 Z-1.379
X-41.767 Z-1.395
X-41.74 Z-1.4
X-41.67 F1000
X-41.643 Y19.285
X-41.621 Y19.301
X-41.605 Y19.323
X-41.6 Y19.35
G3 X-44.1 I-1.25 F300
X-41.6 I1.25
G1 X-41.605 Y19.377 F1000
X-41.621 Y19.399
X-41.643 Y19.415
X-41.67 Y19.42
X-41.74
X-41.767 Z-1.395
X-41.789 Z-1.379
X-41.805 Z-1.357
X-41.81 Z-1.33
G0 Z3
Y19.28
Z2
G1 Z0.3 F333.3
Z-2.03
X-41.805 Z-2.057
X-41.789 Z-2.079
X-41.767 Z-2.095
X-41.74 Z-2.1
X-41.67 F1000
X-41.643 Y19.285
X-41.621 Y19.301
X-41.605 Y19.323
X-41.6 Y19.35
G3 X-44.1 I-1.25 F300
X-41.6 I1.25
G1 X-41.605 Y19.377 F1000
X-41.621 Y19.399
X-41.643 Y19.415
X-41.67 Y19.42
X-41.74
X-41.767 Z-2.095
X-41.789 Z-2.079
X-41.805 Z-2.057
X-41.81 Z-2.03
G0 Z3
Y19.28
Z2
G1 Z-0.4 F333.3
Z-2.43
X-41.805 Z-2.457
X-41.789 Z-2.479
X-41.767 Z-2.495
X-41.74 Z-2.5
X-41.67 F1000
X-41.643 Y19.285
X-41.621 Y19.301
X-41.605 Y19.323
X-41.6 Y19.35
G3 X-44.1 I-1.25 F300
X-41.6 I1.25
G1 X-41.605 Y19.377 F1000
X-41.621 Y19.399
X-41.643 Y19.415
X-41.67 Y19.42
X-41.74
X-41.767 Z-2.495
X-41.789 Z-2.479
X-41.805 Z-2.457
X-41.81 Z-2.43
G0 Z3
X43.89 Y19.28
Z2
G1 Z1.7 F333.3
Z-0.63
X43.895 Z-0.657
X43.911 Z-0.679
X43.933 Z-0.695
X43.96 Z-0.7
X44.03 F1000
X44.057 Y19.285
X44.079 Y19.301
X44.095 Y19.323
X44.1 Y19.35
G3 X41.6 I-1.25 F300
X44.1 I1.25
G1 X44.095 Y19.377 F1000
X44.079 Y19.399
X44.057 Y19.415
X44.03 Y19.42
X43.96
X43.933 Z-0.695
X43.911 Z-0.679
X43.895 Z-0.657
X43.89 Z-0.63
G0 Z3
Y19.28
Z2
G1 Z1 F333.3
Z-1.33
X43.895 Z-1.357
X43.911 Z-1.379
X43.933 Z-1.395
X43.96 Z-1.4
X44.03 F1000
X44.057 Y19.285
X44.079 Y19.301
X44.095 Y19.323
X44.1 Y19.35
G3 X41.6 I-1.25 F300
X44.1 I1.25
G1 X44.095 Y19.377 F1000
X44.079 Y19.399
X44.057 Y19.415
X44.03 Y19.42
X43.96
X43.933 Z-1.395
X43.911 Z-1.379
X43.895 Z-1.357
X43.89 Z-1.33
G0 Z3
Y19.28
Z2
G1 Z0.3 F333.3
Z-2.03
X43.895 Z-2.057
X43.911 Z-2.079
X43.933 Z-2.095
X43.96 Z-2.1
X44.03 F1000
X44.057 Y19.285
X44.079 Y19.301
X44.095 Y19.323
X44.1 Y19.35
G3 X41.6 I-1.25 F300
X44.1 I1.25
G1 X44.095 Y19.377 F1000
X44.079 Y19.399
X44.057 Y19.415
X44.03 Y19.42
X43.96
X43.933 Z-2.095
X43.911 Z-2.079
X43.895 Z-2.057
X43.89 Z-2.03
G0 Z3
Y19.28
Z2
G1 Z-0.4 F333.3
Z-2.43
X43.895 Z-2.457
X43.911 Z-2.479
X43.933 Z-2.495
X43.96 Z-2.5
X44.03 F1000
X44.057 Y19.285
X44.079 Y19.301
X44.095 Y19.323
X44.1 Y19.35
G3 X41.6 I-1.25 F300
X44.1 I1.25
G1 X44.095 Y19.377 F1000
X44.079 Y19.399
X44.057 Y19.415
X44.03 Y19.42
X43.96
X43.933 Z-2.495
X43.911 Z-2.479
X43.895 Z-2.457
X43.89 Z-2.43
G0 Z3
Y-19.42
Z2
G1 Z1.7 F333.3
Z-0.63
X43.895 Z-0.657
X43.911 Z-0.679
X43.933 Z-0.695
X43.96 Z-0.7
X44.03 F1000
X44.057 Y-19.415
X44.079 Y-19.399
X44.095 Y-19.377
X44.1 Y-19.35
G3 X41.6 I-1.25 F300
X44.1 I1.25
G1 X44.095 Y-19.323 F1000
X44.079 Y-19.301
X44.057 Y-19.285
X44.03 Y-19.28
X43.96
X43.933 Z-0.695
X43.911 Z-0.679
X43.895 Z-0.657
X43.89 Z-0.63
G0 Z3
Y-19.42
Z2
G1 Z1 F333.3
Z-1.33
X43.895 Z-1.357
X43.911 Z-1.379
X43.933 Z-1.395
X43.96 Z-1.4
X44.03 F1000
X44.057 Y-19.415
X44.079 Y-19.399
X44.095 Y-19.377
X44.1 Y-19.35
G3 X41.6 I-1.25 F300
X44.1 I1.25
G1 X44.095 Y-19.323 F1000
X44.079 Y-19.301
X44.057 Y-19.285
X44.03 Y-19.28
X43.96
X43.933 Z-1.395
X43.911 Z-1.379
X43.895 Z-1.357
X43.89 Z-1.33
G0 Z3
Y-19.42
Z2
G1 Z0.3 F333.3
Z-2.03
X43.895 Z-2.057
X43.911 Z-2.079
X43.933 Z-2.095
X43.96 Z-2.1
X44.03 F1000
X44.057 Y-19.415
X44.079 Y-19.399
X44.095 Y-19.377
X44.1 Y-19.35
G3 X41.6 I-1.25 F300
X44.1 I1.25
G1 X44.095 Y-19.323 F1000
X44.079 Y-19.301
X44.057 Y-19.285
X44.03 Y-19.28
X43.96
X43.933 Z-2.095
X43.911 Z-2.079
X43.895 Z-2.057
X43.89 Z-2.03
G0 Z3
Y-19.42
Z2
G1 Z-0.4 F333.3
Z-2.43
X43.895 Z-2.457
X43.911 Z-2.479
X43.933 Z-2.495
X43.96 Z-2.5
X44.03 F1000
X44.057 Y-19.415
X44.079 Y-19.399
X44.095 Y-19.377
X44.1 Y-19.35
G3 X41.6 I-1.25 F300
X44.1 I1.25
G1 X44.095 Y-19.323 F1000
X44.079 Y-19.301
X44.057 Y-19.285
X44.03 Y-19.28
X43.96
X43.933 Z-2.495
X43.911 Z-2.479
X43.895 Z-2.457
X43.89 Z-2.43
G0 Z8

(2D Contour5)
X47.106 Y-28.06
Z8
Z2
G1 Z1.7 F333.3
Z-0.63
Y-28.055 Z-0.657
Y-28.039 Z-0.679
Y-28.017 Z-0.695
Y-27.99 Z-0.7
Y-27.92 F1000
X47.1 Y-27.893
X47.085 Y-27.871
X47.062 Y-27.855
X47.036 Y-27.85
X-48.25 F300
G2 X-51.1 Y-25 J2.85
G1 Y25
G2 X-48.25 Y27.85 I2.85
G1 X48.25
G2 X51.1 Y25 J-2.85
G1 Y-25
G2 X48.25 Y-27.85 I-2.85
G1 X47.036
X47.009 Y-27.855 F1000
X46.986 Y-27.871
X46.971 Y-27.893
X46.966 Y-27.92
Y-27.99
Y-28.017 Z-0.695
Y-28.039 Z-0.679
Y-28.055 Z-0.657
Y-28.06 Z-0.63
G0 Z3
X47.106
Z2
G1 Z1 F333.3
Z-1.33
Y-28.055 Z-1.357
Y-28.039 Z-1.379
Y-28.017 Z-1.395
Y-27.99 Z-1.4
Y-27.92 F1000
X47.1 Y-27.893
X47.085 Y-27.871
X47.062 Y-27.855
X47.036 Y-27.85
X-48.25 F300
G2 X-51.1 Y-25 J2.85
G1 Y25
G2 X-48.25 Y27.85 I2.85
G1 X48.25
G2 X51.1 Y25 J-2.85
G1 Y-25
G2 X48.25 Y-27.85 I-2.85
G1 X47.036
X47.009 Y-27.855 F1000
X46.986 Y-27.871
X46.971 Y-27.893
X46.966 Y-27.92
Y-27.99
Y-28.017 Z-1.395
Y-28.039 Z-1.379
Y-28.055 Z-1.357
Y-28.06 Z-1.33
G0 Z3
X47.106
Z2
G1 Z0.3 F333.3
Z-2.03
Y-28.055 Z-2.057
Y-28.039 Z-2.079
Y-28.017 Z-2.095
Y-27.99 Z-2.1
Y-27.92 F1000
X47.1 Y-27.893
X47.085 Y-27.871
X47.062 Y-27.855
X47.036 Y-27.85
X-48.25 F300
G2 X-51.1 Y-25 J2.85
G1 Y25
G2 X-48.25 Y27.85 I2.85
G1 X48.25
G2 X51.1 Y25 J-2.85
G1 Y-25
G2 X48.25 Y-27.85 I-2.85
G1 X47.036
X47.009 Y-27.855 F1000
X46.986 Y-27.871
X46.971 Y-27.893
X46.966 Y-27.92
Y-27.99
Y-28.017 Z-2.095
Y-28.039 Z-2.079
Y-28.055 Z-2.057
Y-28.06 Z-2.03
G0 Z3
X47.106
Z2
G1 Z-0.4 F333.3
Z-2.43
Y-28.055 Z-2.457
Y-28.039 Z-2.479
Y-28.017 Z-2.495
Y-27.99 Z-2.5
Y-27.92 F1000
X47.1 Y-27.893
X47.085 Y-27.871
X47.062 Y-27.855
X47.036 Y-27.85
X-48.25 F300
G2 X-51.1 Y-25 J2.85
G1 Y25
G2 X-48.25 Y27.85 I2.85
G1 X48.25
G2 X51.1 Y25 J-2.85
G1 Y-25
G2 X48.25 Y-27.85 I-2.85
G1 X47.036
X47.009 Y-27.855 F1000
X46.986 Y-27.871
X46.971 Y-27.893
X46.966 Y-27.92
Y-27.99
Y-28.017 Z-2.495
Y-28.039 Z-2.479
Y-28.055 Z-2.457
Y-28.06 Z-2.43
G0 Z8
M9
M30
%
